public/assets/icons/develop.svg

<svg fill="none" height="33" viewBox="0 0 33 33" width="33" xmlns="http://www.w3.org/2000/svg"><path d="m9.16533 14.146-4-4c-.09298-.0929-.16674-.20318-.21706-.32458-.05033-.12139-.07623-.25152-.07623-.38294 0-.13141.0259-.26154.07623-.38294.05032-.1214.12408-.23168.21706-.32456l4-4c.18764-.18764.44213-.29305.7075-.29305s.51987.10541.70747.29305c.1877.18764.2931.44214.2931.7075 0 .26537-.1054.51986-.2931.7075l-3.29372 3.2925 3.29372 3.29252c.1877.1876.2931.4421.2931.7075 0 .2653-.1054.5198-.2931.7075-.1876.1876-.4421.293-.70747.293s-.51986-.1054-.7075-.293zm4.99997 0c.0929.093.2032.1667.3246.217.1214.0504.2515.0763.3829.0763s.2616-.0259.383-.0763c.1214-.0503.2317-.124.3245-.217l4-4c.093-.0929.1668-.20318.2171-.32458.0503-.12139.0762-.25152.0762-.38294 0-.13141-.0259-.26154-.0762-.38294s-.1241-.23168-.2171-.32456l-4-4c-.1876-.18764-.4421-.29305-.7075-.29305-.2653 0-.5198.10541-.7075.29305-.1876.18764-.293.44214-.293.7075 0 .26537.1054.51986.293.7075l3.2938 3.2925-3.2938 3.29252c-.093.0929-.1667.2031-.217.3245-.0504.1214-.0763.2516-.0763.383s.0259.2615.0763.3829c.0503.1214.124.2317.217.3246zm12.7075-7.70752h-3c-.2652 0-.5195.10536-.7071.2929-.1875.18753-.2929.44189-.2929.7071 0 .26522.1054.51957.2929.70711.1876.18754.4419.29289.7071.29289h3v18.00002h-17.99997v-8c0-.2652-.10536-.5196-.2929-.7071-.18753-.1876-.44189-.2929-.7071-.2929-.26522 0-.51957.1053-.70711.2929-.18754.1875-.29289.4419-.29289.7071v8c0 .5304.21071 1.0391.58578 1.4142.37508.3751.88378.5858 1.41422.5858h17.99997c.5305 0 1.0392-.2107 1.4142-.5858.3751-.3751.5858-.8838.5858-1.4142v-18.00002c0-.53043-.2107-1.03914-.5858-1.41421-.375-.37507-.8837-.58579-1.4142-.58579z" fill="#fff"/></svg>

<svg width="33" height="33" viewBox="0 0 33 33" fill="none" xmlns="http://www.w3.org/2000/svg">
<path d="M9.16533 14.146L5.16533 10.146C5.07235 10.0531 4.99859 9.94282 4.94827 9.82142C4.89794 9.70003 4.87204 9.5699 4.87204 9.43848C4.87204 9.30707 4.89794 9.17694 4.94827 9.05554C4.99859 8.93414 5.07235 8.82386 5.16533 8.73098L9.16533 4.73098C9.35297 4.54334 9.60746 4.43793 9.87283 4.43793C10.1382 4.43793 10.3927 4.54334 10.5803 4.73098C10.768 4.91862 10.8734 5.17312 10.8734 5.43848C10.8734 5.70385 10.768 5.95834 10.5803 6.14598L7.28658 9.43848L10.5803 12.731C10.768 12.9186 10.8734 13.1731 10.8734 13.4385C10.8734 13.7038 10.768 13.9583 10.5803 14.146C10.3927 14.3336 10.1382 14.439 9.87283 14.439C9.60746 14.439 9.35297 14.3336 9.16533 14.146ZM14.1653 14.146C14.2582 14.239 14.3685 14.3127 14.4899 14.363C14.6113 14.4134 14.7414 14.4393 14.8728 14.4393C15.0042 14.4393 15.1344 14.4134 15.2558 14.363C15.3772 14.3127 15.4875 14.239 15.5803 14.146L19.5803 10.146C19.6733 10.0531 19.7471 9.94282 19.7974 9.82142C19.8477 9.70003 19.8736 9.5699 19.8736 9.43848C19.8736 9.30707 19.8477 9.17694 19.7974 9.05554C19.7471 8.93414 19.6733 8.82386 19.5803 8.73098L15.5803 4.73098C15.3927 4.54334 15.1382 4.43793 14.8728 4.43793C14.6075 4.43793 14.353 4.54334 14.1653 4.73098C13.9777 4.91862 13.8723 5.17312 13.8723 5.43848C13.8723 5.70385 13.9777 5.95834 14.1653 6.14598L17.4591 9.43848L14.1653 12.731C14.0723 12.8239 13.9986 12.9341 13.9483 13.0555C13.8979 13.1769 13.872 13.3071 13.872 13.4385C13.872 13.5699 13.8979 13.7 13.9483 13.8214C13.9986 13.9428 14.0723 14.0531 14.1653 14.146ZM26.8728 6.43848H23.8728C23.6076 6.43848 23.3533 6.54384 23.1657 6.73138C22.9782 6.91891 22.8728 7.17327 22.8728 7.43848C22.8728 7.7037 22.9782 7.95805 23.1657 8.14559C23.3533 8.33313 23.6076 8.43848 23.8728 8.43848H26.8728V26.4385H8.87283V18.4385C8.87283 18.1733 8.76747 17.9189 8.57993 17.7314C8.3924 17.5438 8.13804 17.4385 7.87283 17.4385C7.60761 17.4385 7.35326 17.5438 7.16572 17.7314C6.97818 17.9189 6.87283 18.1733 6.87283 18.4385V26.4385C6.87283 26.9689 7.08354 27.4776 7.45861 27.8527C7.83369 28.2278 8.34239 28.4385 8.87283 28.4385H26.8728C27.4033 28.4385 27.912 28.2278 28.287 27.8527C28.6621 27.4776 28.8728 26.9689 28.8728 26.4385V8.43848C28.8728 7.90805 28.6621 7.39934 28.287 7.02427C27.912 6.6492 27.4033 6.43848 26.8728 6.43848Z" fill="white"/>
</svg>
